X:1
T:Dies Irae (Dykes), 888
T:John Bacchus Dykes, 1861
T:Dies Irae (Dykes), 888
T:Public Domain
C:John Bacchus Dykes, 1861
Z:Public Domain
%%score ( 1 2 ) ( 3 4 )
L:1/8
M:4/4
K:F
V:1 treble 
V:2 treble 
V:3 bass 
V:4 bass 
V:1
 [DF]3 [DE] D2 [DE]2 | [DF]2 [DG]2 [DA]2 D2 | [DB]2 [EB]2 [A,A]2 D2 | (DC) [DF]2 [^CE]2 [D^F]2 | %4
 [DG]2 (DC) [^CG]2 [DF]2 | [^CE]2 [DF]2 (DC) D2 | D2 z B [_EB]3 [EA] | [_EG]2 [EA]2 [EB]2 [DF]2 | %8
 [B,F]2 [DB]2 [_EB]3 [EA] | [_EG]2 [EA]2 [DB]2 F2!f! | [Fd]2 [Ed]2 [Dd]3 D | [DE]2 [DG]2 ([DF-]4 | %12
 F2) E2 D4 |] %13
V:2
 x4 D2 x2 | x8 | x6 D2 | G2 x6 | x2 G2 x4 | x4 E2 D2 | F3 D2 x3 | x8 | x8 | x8 | x8 | x8 | %12
 ^C4 D4 |] %13
V:3
 [D,A,]3 [D,G,] [D,F,]2 [D,G,]2 | [D,A,]2 [D,B,]2 [F,A,]2 [F,A,]2 | %2
 [G,B,]2 [G,B,]2 [F,D]2 [F,A,]2 | [E,B,]2 (F,G,) A,2 [D,A,]2 | [G,B,]2 (G,F,) [A,,E,]2 (F,G,) | %5
 [A,,A,]2 (F,,G,,) (G,E,) [D,F,]2 | [D,A,]2 [B,,B,]2 [F,,C]3 [F,C] | %7
 [F,B,]2 [F,C]2 [B,,B,]2 [B,,B,]2 | [F,D]2 [F,B,]2 [F,C]3 [F,C] | [F,B,]2 [F,C]2 [B,,B,]2 [B,,D]2 | %10
 [B,D]2 [G,B,]2 [G,B,]3 [G,B,] | [G,B,]2 [G,,B,]2 A,2 F,2 | [A,,G,]4 [D,F,]4 |] %13
V:4
 x8 | x8 | x8 | x2 A,2 A,2 x2 | x2 A,,2 x A,,2 x | x2 A,2 A,,2 x2 | x8 | x8 | x8 | x8 | x8 | %11
 x4 A,,4- | x8 |] %13

